src/assets/result_warn.svg

<svg viewBox="0 0 200 200" version="1.1" xmlns="http://www.w3.org/2000/svg" xmlns:xlink="http://www.w3.org/1999/xlink">
  <title>结果-警告</title>
  <g id="页面-1" stroke="none" stroke-width="1" fill="none" fill-rule="evenodd">
      <g id="结果-警告">
          <g>
              <path d="M99.5529263,0.136264535 C44.6847905,0.136264535 0.203215318,44.8764535 0.203215318,100.06359 C0.203215318,155.250727 44.6847905,199.990916 99.5529263,199.990916 C154.421062,199.990916 198.902637,155.250727 198.902637,100.06359 C198.902637,44.8764535 154.443642,0.136264535 99.5529263,0.136264535 Z M99.7109827,160.655887 C94.2241691,160.655887 89.7760116,156.181868 89.7760116,150.663154 C89.7760116,145.14444 94.2241691,140.670422 99.7109827,140.670422 C105.197796,140.670422 109.645954,145.14444 109.645954,150.663154 C109.645954,156.181868 105.197796,160.655887 99.7109827,160.655887 L99.7109827,160.655887 Z M115.358562,52.6208212 L115.358562,52.6662427 C115.335983,54.0515988 115.132767,55.3915334 114.794075,56.6633358 L105.89776,118.640988 C105.89776,122.161156 103.075325,125 99.5755058,125 C96.0756864,125 93.2532514,122.161156 93.2532514,118.640988 L84.3569364,56.6633358 C83.9956647,55.3915334 83.8150289,54.0515988 83.7924494,52.6662427 L83.7924494,52.6208212 L83.7924494,52.3937137 C83.7924494,43.6046512 90.8598266,36.4961846 99.5980853,36.4961846 C108.336344,36.4961846 115.403721,43.6046512 115.403721,52.3937137 C115.358562,52.4618459 115.358562,52.5299782 115.358562,52.6208212 Z" id="形状" fill="rgba(247,187,10)" fill-rule="nonzero"></path>
          </g>
      </g>
  </g>
</svg>

<svg viewBox="0 0 200 200" xmlns="http://www.w3.org/2000/svg"><path d="M99.553.136C44.685.136.203 44.876.203 100.064c0 55.187 44.482 99.927 99.35 99.927 54.868 0 99.35-44.74 99.35-99.927 0-55.188-44.46-99.928-99.35-99.928zm.158 160.52c-5.487 0-9.935-4.474-9.935-9.993s4.448-9.993 9.935-9.993 9.935 4.474 9.935 9.993-4.448 9.993-9.935 9.993zM115.359 52.62v.045a16.575 16.575 0 01-.565 3.997l-8.896 61.978c0 3.52-2.823 6.359-6.322 6.359-3.5 0-6.323-2.839-6.323-6.359l-8.896-61.978a15.528 15.528 0 01-.565-3.997v-.272c0-8.79 7.068-15.898 15.806-15.898s15.806 7.109 15.806 15.898c-.045.068-.045.136-.045.227z" fill="rgba(247,187,10)" fill-rule="nonzero"/></svg>
